X:1
T:Myanmar, 76.76.66.76
T:Myanmar, 76.76.66.76
T:Charles A. McCormick, 1900
T:Public Domain Courtesy of the Cyber Hymnal™
C:Charles A. McCormick, 1900
Z:Public Domain
Z:Courtesy of the Cyber Hymnal™
%%score 1 ( 2 3 )
L:1/8
Q:1/4=110
M:4/4
K:F
V:1 treble 
V:2 bass 
V:3 bass 
V:1
 [FA]2 [FA]2 [F^G]2 [FA]2 | [Fc]2 [Fd]2 [Fc]4 | [FA]2 [FA]2 [Fc]2 [FA]2 | [FA]4 [EG]4 | %4
 [FA]2 [FA]2 [FB]2 [FB]2 | [Fc]2 [Fc]2 [Ac]4 | [GB]2 [DG]2 [CF]2 [CE]2 | [CG]4 [CF]4 | %8
 [EG]2 [EG]2 [Ec]4 | [FA]2 [FB]2 [Fc]4 | [Fd]2 [Fc]2 [GB]2 [FA]2 | [FA]4 [EG]4 | %12
 [FA]2 [FA]2 [FB]2 [FB]2 | [Fc]2 [Fc]2 [Ac]4 | [GB]2 [DG]2 [CF]2 [CE]2 | [CG]4 [CF]4 |] %16
V:2
 [F,C]2 [F,C]2 [F,=B,]2 [F,C]2 | [F,A,]2 [F,B,]2 [F,A,]4 | [F,C]2 [F,C]2 [A,C]2 [F,C]2 | %3
 [C,C]4 [C,C]4 | [F,C]2 [F,C]2 [F,G,]2 [F,G,]2 | [F,A,]2 [F,_E]2 [^F,D]4 | %6
 [G,D]2 [B,,B,]2 [C,A,]2 [C,G,]2 | [C,B,]4 [F,A,]4 | [C,C]2 [C,C]2 [C,G,]4 | F,2 [F,G,]2 [F,A,]4 | %10
 B,2 [A,C]2 [E,C]2 [F,C]2 | [C,C]4 [C,C]4 | [F,C]2 [F,C]2 [F,G,]2 [F,G,]2 | %13
 [F,A,]2 [F,_E]2 [^F,D]4 | [G,D]2 [B,,B,]2 [C,A,]2 [C,G,]2 | [C,B,]4 [F,A,]4 |] %16
V:3
 x8 | x8 | x8 | x8 | x8 | x8 | x8 | x8 | x8 | F,2 x6 | B,2 x6 | x8 | x8 | x8 | x8 | x8 |] %16

